X:1
T:Marion, SM refrain
T:Arthur Henry Messiter, 1883
T:Marion, SM refrain
T:Public Domain
C:Arthur Henry Messiter, 1883
Z:Public Domain
%%score ( 1 2 ) ( 3 4 )
L:1/8
M:4/4
K:G
V:1 treble 
V:2 treble 
V:3 bass 
V:4 bass 
V:1
 [DG]2 | [Dd]2 (BA) G2 [DA]2 | [DB]6 [^DB]2 | [EB]2 ([EG][FA]) [GB]2 [G^c]2 | [Fd]6 [=Fd]2 | %5
 [Ee]2 (dc) [EB]2 [EB]2 | (BA)(^GA) [EB]2 E2 | [EA]2 [EB]2 [Ec]2 [DB]2 | [DA]6 [Dd]2 | %9
 [Dd]6 [Dd]2 | [Dd]6 [Gd]2 | [Gc]2 (BA) [GB]2 [FA]2 | G6 |] %13
V:2
 x2 | x2 F2 G2 x2 | x8 | x8 | x8 | x2 E2 x4 | E2 ^D2 x E2 x | x8 | x8 | x8 | x8 | x2 G2 x4 | G6 |] %13
V:3
 [G,B,]2 | [F,A,]2 (DC) [E,B,]2 [D,F,]2 | G,6 [F,A,]2 | [E,G,]2 ([G,B,][F,A,]) [E,G,]2 [E,A,]2 | %4
 [D,A,]6 [G,B,]2 | [C,C]2 (B,A,) [E,A,]2 [E,^G,]2 | [F,A,]2 (B,A,) [E,^G,]2 [D,G,]2 | %7
 [C,A,]2 [B,,G,]2 (G,F,)(B,,C,) | [D,F,]6 z2 | z2 ([D,F,][E,G,]) [F,A,]4 | %10
 z2 ([E,G,][F,A,]) [G,B,]2 [=F,B,]2 | [E,C]2 ([D,D][C,E]) [D,D]2 [D,C]2 | [G,,G,B,]6 |] %13
V:4
 x2 | x2 D,2 x4 | G,6 x2 | x8 | x8 | x2 C,2 x4 | x2 B,,2 x4 | x4 A,,2 G,2 | x8 | x8 | x8 | x8 | %12
 x6 |] %13

